X: 30052
T: PIRATE'S SERENADE
C:
%R: jig
B: Elias Howe "The Musician's Companion" Part 3 1844 p.5 #2
S: http://imslp.org/wiki/The_Musician's_Companion_(Howe,_Elias)
S: https://archive.org/stream/firstthirdpartof03howe/#page/66/mode/1up
Z: 2016 John Chambers <jc:trillian.mit.edu>
M: 6/8
L: 1/8
K: Eb
% - - - - - - - - - - - - - - - - - - - - - - - - -
B, |\
EGB e2B | cB=A B2G | AGF GFE | FG=A B2 B, |\
EGB e2B | cBA B2B | BBB BB2 | ded G2B |
BGF G2E | BAF G2E | EEE EEE | FFF F2 B, |\
E (3G/F/G/ (3B/A/B/ e2d | d/c/ B/c/ d/c/ B2B | Bfc dec | BcB E2z :|
% - - - - - - - - - - - - - - - - - - - - - - - - -
